pic/icon-cover.svg

<svg xmlns="http://www.w3.org/2000/svg" width="30" height="30" viewBox="0 0 30 30">
  <path fill-rule="evenodd" d="M24,0 C27.3137085,0 30,2.6862915 30,6 L30,24 C30,27.3137085 27.3137085,30 24,30 L6,30 C2.6862915,30 0,27.3137085 0,24 L0,6 C0,2.6862915 2.6862915,0 6,0 L24,0 Z M17,6 L9.75,6 C8.6956382,6 7.83183488,6.81587779 7.75548574,7.85073766 L7.75,8 L7.749,8.482 L8.80785961,8.48280117 L8.97170291,8.49049521 C9.4036658,8.53127841 9.79358939,8.7321743 10.0834271,9.0448613 C10.383097,9.36815569 10.5742213,9.81345899 10.5742213,10.3095789 C10.5742213,10.8054174 10.383232,11.2509462 10.0836607,11.5744558 C9.79373159,11.8875526 9.40368629,12.0886602 8.9717048,12.1294854 L8.80785961,12.1371873 L7.749,12.137 L7.749,13.171 L8.80785961,13.1711656 L8.97149603,13.1788711 C9.40303333,13.2197179 9.79349633,13.4209621 10.0837901,13.7347644 C10.3832878,14.0585159 10.5742213,14.5042258 10.5742213,14.9995887 C10.5742213,15.4950166 10.3831773,15.9406169 10.0832399,16.2641997 C9.79337544,16.5769157 9.40346415,16.7778732 8.97164336,16.8186698 L8.80785961,16.8263664 L7.749,16.826 L7.749,17.861 L8.80785961,17.8611754 L8.97143481,17.8688759 C9.40281186,17.9096956 9.79314057,18.1107963 10.0833698,18.4242172 C10.3832331,18.7480421 10.5742213,19.1938235 10.5742213,19.6887758 C10.5742213,20.1839226 10.3833119,20.6297484 10.0834735,20.9535464 C9.79351762,21.2666722 9.40348467,21.4678349 8.97164525,21.508672 L8.80785961,21.5163762 L7.749,21.516 L7.75,22 C7.75,23.0543618 8.56587779,23.9181651 9.60073766,23.9945143 L9.75,24 L22,24 C23.0543618,24 23.9181651,23.1841222 23.9945143,22.1492623 L24,22 L24,8 C24,6.9456382 23.1841222,6.08183488 22.1492623,6.00548574 L22,6 L21,6.00062613 L21,13.1587252 L19.6000397,12.0003757 L19.4844891,11.9380405 C19.2054295,11.8107728 18.867778,11.8107728 18.6290236,11.9380405 L18.5332144,12.0003757 L17,13.1593513 L17,6 Z M8.80785961,18.8611754 L6.76556172,18.8611754 C6.34318284,18.8611754 6,19.2313744 6,19.6887758 C6,20.1453545 6.3439828,20.5163762 6.76556172,20.5163762 L8.80785961,20.5163762 C9.23183841,20.5163762 9.57422129,20.1453545 9.57422129,19.6887758 C9.57422129,19.232197 9.23103845,18.8611754 8.80785961,18.8611754 Z M8.80785961,14.1711656 L6.76556172,14.1711656 C6.3439828,14.1711656 6,14.5413646 6,14.9995887 C6,15.4569901 6.3439828,15.8263664 6.76556172,15.8263664 L8.80785961,15.8263664 C9.23183841,15.8263664 9.57422129,15.4561674 9.57422129,14.9995887 C9.57422129,14.5421873 9.23103845,14.1711656 8.80785961,14.1711656 Z M8.80785961,9.48280117 L6.76556172,9.48280117 C6.34318284,9.48280117 6,9.85300015 6,10.3095789 C6,10.7310362 6.29241615,11.0802937 6.66961568,11.1315318 L6.76556172,11.1371793 L8.80785961,11.1371793 C9.23183841,11.1371793 9.57422129,10.7669803 9.57422129,10.3095789 C9.57422129,9.85217749 9.23183841,9.48280117 8.80785961,9.48280117 Z"/>
</svg>

<svg xmlns="http://www.w3.org/2000/svg" width="30" height="30" viewBox="0 0 30 30"><path fill-rule="evenodd" d="M24 0a6 6 0 0 1 6 6v18a6 6 0 0 1-6 6H6a6 6 0 0 1-6-6V6a6 6 0 0 1 6-6h18Zm-7 6H9.75a2 2 0 0 0-1.995 1.85L7.75 8l-.001.482h1.059l.164.008c.432.041.822.242 1.111.555.3.323.491.768.491 1.265 0 .495-.19.94-.49 1.264-.29.314-.68.515-1.112.555l-.164.008H7.749v1.034h1.059l.163.008c.432.04.822.242 1.113.556.3.324.49.77.49 1.265 0 .495-.19.94-.49 1.264-.29.313-.68.514-1.112.555l-.164.007H7.749v1.035h1.059l.163.008c.432.04.822.242 1.112.555.3.324.491.77.491 1.265 0 .495-.19.94-.49 1.265-.29.313-.68.514-1.112.555l-.164.007H7.749L7.75 22a2 2 0 0 0 1.85 1.995l.15.005H22a2 2 0 0 0 1.995-1.85L24 22V8a2 2 0 0 0-1.85-1.995L22 6h-1v7.159L19.6 12l-.116-.062c-.279-.127-.616-.127-.855 0l-.096.062L17 13.16V6ZM8.808 18.861H6.766c-.423 0-.766.37-.766.828 0 .456.344.827.766.827h2.042c.424 0 .766-.37.766-.827 0-.457-.343-.828-.766-.828Zm0-4.69H6.766c-.422 0-.766.37-.766.829 0 .457.344.826.766.826h2.042c.424 0 .766-.37.766-.826 0-.458-.343-.829-.766-.829Zm0-4.688H6.766c-.423 0-.766.37-.766.827 0 .421.292.77.67.822l.096.005h2.042c.424 0 .766-.37.766-.827 0-.458-.342-.827-.766-.827Z"/></svg>
